X: 1
T: Harris Dance
R: Reel
M: 4/4
L: 1/8
K: Cmaj
|: cgge g2a2 | g2e(g g)eed | cgge g2a2 | gede AAAB :||
|: e2dc A2GA | e2dc  AAAB | e2dc A2GA | cdcA GGGA:||
